src/assets/icons/server.svg

<svg width="14" height="14" viewBox="0 0 14 14" fill="none" xmlns="http://www.w3.org/2000/svg">
<g id="server">
<g clip-path="url(#clip0_156_4582)">
<path id="Vector" fill-rule="evenodd" clip-rule="evenodd" d="M0 1.64708C0 1.19225 0.368707 0.823547 0.823529 0.823547H13.1765C13.6313 0.823547 14 1.19225 14 1.64708V4.11767C14 4.57249 13.6313 4.94119 13.1765 4.94119C13.6313 4.94119 14 5.3099 14 5.76472V8.23531C14 8.69013 13.6313 9.05884 13.1765 9.05884C13.6313 9.05884 14 9.42755 14 9.88237V12.353C14 12.8078 13.6313 13.1765 13.1765 13.1765H0.823529C0.368707 13.1765 0 12.8078 0 12.353V9.88237C0 9.42755 0.368707 9.05884 0.823529 9.05884C0.368707 9.05884 0 8.69013 0 8.23531V5.76472C0 5.3099 0.368707 4.94119 0.823529 4.94119C0.368707 4.94119 0 4.57249 0 4.11767V1.64708ZM13.1765 1.64708H0.823529V4.11767H13.1765V1.64708ZM13.1765 5.76472H0.823529V8.23531H13.1765V5.76472ZM0.823529 9.88237H13.1765V12.353H0.823529V9.88237ZM2.26471 3.50002C2.60582 3.50002 2.88235 3.22349 2.88235 2.88237C2.88235 2.54125 2.60582 2.26472 2.26471 2.26472C1.92359 2.26472 1.64706 2.54125 1.64706 2.88237C1.64706 3.22349 1.92359 3.50002 2.26471 3.50002ZM4.94118 2.88237C4.94118 3.22349 4.66465 3.50002 4.32353 3.50002C3.98241 3.50002 3.70588 3.22349 3.70588 2.88237C3.70588 2.54125 3.98241 2.26472 4.32353 2.26472C4.66465 2.26472 4.94118 2.54125 4.94118 2.88237ZM2.26471 7.61767C2.60582 7.61767 2.88235 7.34114 2.88235 7.00002C2.88235 6.6589 2.60582 6.38237 2.26471 6.38237C1.92359 6.38237 1.64706 6.6589 1.64706 7.00002C1.64706 7.34114 1.92359 7.61767 2.26471 7.61767ZM4.94118 7.00002C4.94118 7.34114 4.66465 7.61767 4.32353 7.61767C3.98241 7.61767 3.70588 7.34114 3.70588 7.00002C3.70588 6.6589 3.98241 6.38237 4.32353 6.38237C4.66465 6.38237 4.94118 6.6589 4.94118 7.00002ZM2.26471 11.7353C2.60582 11.7353 2.88235 11.4588 2.88235 11.1177C2.88235 10.7765 2.60582 10.5 2.26471 10.5C1.92359 10.5 1.64706 10.7765 1.64706 11.1177C1.64706 11.4588 1.92359 11.7353 2.26471 11.7353ZM4.94118 11.1177C4.94118 11.4588 4.66465 11.7353 4.32353 11.7353C3.98241 11.7353 3.70588 11.4588 3.70588 11.1177C3.70588 10.7765 3.98241 10.5 4.32353 10.5C4.66465 10.5 4.94118 10.7765 4.94118 11.1177Z" fill="black"/>
</g>
</g>
<defs>
<clipPath id="clip0_156_4582">
<rect width="14" height="14" fill="white"/>
</clipPath>
</defs>
</svg>

<svg xmlns="http://www.w3.org/2000/svg" fill="none" viewBox="0 0 14 14"><g clip-path="url(#a)"><path fill="#000" fill-rule="evenodd" d="M0 1.647C0 1.192.369.824.824.824h12.353c.454 0 .823.368.823.823v2.47a.824.824 0 0 1-.823.824c.454 0 .823.369.823.824v2.47a.824.824 0 0 1-.823.824c.454 0 .823.369.823.823v2.471a.824.824 0 0 1-.823.824H.824A.824.824 0 0 1 0 12.353v-2.47c0-.455.369-.824.824-.824A.824.824 0 0 1 0 8.235v-2.47c0-.455.369-.824.824-.824A.824.824 0 0 1 0 4.118zm13.177 0H.824v2.47h12.353zm0 4.118H.824v2.47h12.353zM.824 9.882h12.353v2.471H.824zM2.264 3.5a.618.618 0 1 0 0-1.235.618.618 0 0 0 0 1.235m2.677-.618a.618.618 0 1 1-1.235 0 .618.618 0 0 1 1.235 0M2.265 7.618a.618.618 0 1 0 0-1.236.618.618 0 0 0 0 1.236M4.94 7a.618.618 0 1 1-1.235 0A.618.618 0 0 1 4.94 7m-2.676 4.735a.618.618 0 1 0 0-1.235.618.618 0 0 0 0 1.235m2.676-.617a.618.618 0 1 1-1.235 0 .618.618 0 0 1 1.235 0" clip-rule="evenodd"/></g><defs><clipPath id="a"><path fill="#fff" d="M0 0h14v14H0z"/></clipPath></defs></svg>
